X:1
T:Offertorium, 76.76 D
T:Offertorium, 76.76 D
T:Johann Michael Haydn (1737-1806)
T:Public Domain Courtesy of the Cyber Hymnal™
C:Johann Michael Haydn (1737-1806)
Z:Public Domain
Z:Courtesy of the Cyber Hymnal™
%%score ( 1 2 ) ( 3 4 )
L:1/8
Q:1/4=110
M:4/4
K:D
V:1 treble 
V:2 treble 
V:3 bass 
V:4 bass 
V:1
 (FG) | [DA]2 [Fd]2 (dc) (Bc) | d4 [FA]2 (AF) | E2 [DF]2 G2 [DF]2 | E6 (FG) | A2 [Fd]2 (dc) (Bc) | %6
 d4 [FA]2 [FB]2 | [Fc]2 (dB) [FA]2 [^E^G]2 | [FA]6 (AF) | [DE]2 [DE]2 [DB]2 (AG) | G4 [DF]2 (AF) | %11
 E2 E2 B2 ([EA][DG]) | [CF]6 (FG) | [EA]2 [Gd]2 dc Bc | d4 [FA]2 [Dd]2 | %15
 [DB]2 [DG]2 [DF]2 [CE]2 x | D6 |] %17
V:2
 D2 | x4 E2 E2 | (A2 G2) D2 x2 | E2 (B,C) x4 | (D2 C4) C2 | (DE) x E2 E2 x | (A2 G2) x4 | %7
 x2 F2 x4 | x6 D2 | x6 C2 | (C2 B,C) D2 x2 | E2 E2 EG x2 | x6 D2 | x4 E2 A2 | (A3 G) x4 | x9 | %16
 D6 |] %17
V:3
 A,2 | [F,D]2 [D,A,]2 A,2 [G,E]2 | D4 [D,D]2 [F,A,]2 | [G,B,]2 [F,A,]2 [E,G,]2 [D,A,]2 | %4
 [A,,A,]6 A,2 | [F,A,]2 [D,A,]2 A,2 [G,E]2 | D4 [D,D]2 [D,B,]2 | [C,A,]2 (B,D) [C,C]2 [C,C]2 | %8
 [F,C]6 [F,D]2 | [G,B,]2 [G,B,]2 [E,G,]2 A,2 | [D,A,]4 [D,A,]2 [F,A,]2 | %11
 [G,B,]2 ([G,B,][F,A,]) (G,B,) (CB,) | (B,2 ^A,4) [B,,B,]2 | [A,,C]2 [A,,B,]2 (A,C) (FE) | %14
 D4 (DC) (B,A,) | (G,A,) [E,B,]2 A,3 z G, | [D,F,]6 |] %17
V:4
 (D,E,) | x4 A,2 x2 | (F,2 E,2) x4 | x8 | x6 (A,G,) | x4 A,2 x2 | (F,2 E,2) x4 | x2 B,,2 x4 | x8 | %9
 x6 A,2 | x8 | x4 E,2 E,2 | F,6 x2 | x4 A,2 G,2 | (F,2 E,2) D,2 F,2 | G,2 x A,2 A,,2 x2 | x6 |] %17

